!!!COM: Vivaldi, Antonio
!!!OTL: Concerto a violino solo, No. 12
!!!XEN: Violin Concerto No. 12 in C major
!!!OPR: Il Cimento dell'armonia e dell'inventione
!!!XEN: The Contest of Harmony and Invention
!!!OPS: Opus 8
!!!ONM: No. 12
!!!OMV: Movement 1.
!!!YEC: Copyright 1996, Center for Computer Assisted Research in the Humanities
!!!YEM: Rights to all derivative electronic formats reserved.
!!!YEM: Refer to licensing agreement for important restrictions.
!!!OMD: Allegro
**kern	**kern	**kern	**kern	**kern	**Bnum
*Icello	*Iviola	*Ivioln	*Ivioln	*Ivioln	*Icemba
*Icemba	*	*	*	*	*
*ICstr	*ICstr	*ICstr	*ICstr	*ICstr	*ICklav
*ICklav	*	*	*	*	*
!cello	!viola	!violino 2	!violino 1	!violino principale	!continuo
!basso continuo	!	!	!	!	!
*clefF4	*clefC3	*clefG2	*clefG2	*clefG2	*
*k[]	*k[]	*k[]	*k[]	*k[]	*k[]
*C:	*C:	*C:	*C:	*C:	*C:
*M4/4	*M4/4	*M4/4	*M4/4	*M4/4	*M4/4
8C/	8g\	8ee\	8cc\	8cc\	.
=1	=1	=1	=1	=1	=1
8C\L	4.g\	4.ee\	4.cc\	4.cc\	.
16c\L	.	.	.	.	.
16B\JJ	.	.	.	.	.
8c\L	.	.	.	.	.
8C\J	8g\	16ff\LL	16dd\LL	16dd\LL	.
.	.	16ee\JJ	16cc\JJ	16cc\JJ	.
8GG\L	4.g\	4.dd\	4.b\	4.b\	.
16G\L	.	.	.	.	.
16F\JJ	.	.	.	.	.
8G\L	.	.	.	.	.
8GG\J	8g\	16cc\LL	16a/LL	16a/LL	.
.	.	16b\JJ	16g/JJ	16g/JJ	.
=2	=2	=2	=2	=2	=2
8C\L	8g\L	8cc\L	8ee\L	8ee\L	.
8F\	8a\	8dd\J	8ff\J	8ff\J	6
8C\	8g\	4ccT\	4eet\	4eet\	.
8F#\J	8a\J	.	.	.	6 5
!!  Placement of trill corrected; cf. principale part here and also m4.  
8GG\L	8d\L	4.b\	4.dd\	4.dd\	.
16G\L	16b\L	.	.	.	.
16F#\JJ	16a\JJ	.	.	.	.
8G\L	8b\L	.	.	.	.
8C\J	8g\J	8ee\	8cc\	8cc\	.
=3	=3	=3	=3	=3	=3
8C\L	4.g\	4.ee\	4.cc\	4.cc\	.
16c\L	.	.	.	.	.
16B\JJ	.	.	.	.	.
8c\L	.	.	.	.	.
8C\J	8g\	16ff\LL	16dd\LL	16dd\LL	.
.	.	16ee\JJ	16cc\JJ	16cc\JJ	.
8GG\L	4.g\	4.dd\	4.b\	4.b\	.
16G\L	.	.	.	.	.
16F\JJ	.	.	.	.	.
8G\L	.	.	.	.	.
8GG\J	8g\	16cc\LL	16a/LL	16a/LL	.
.	.	16b\JJ	16g/JJ	16g/JJ	.
=4	=4	=4	=4	=4	=4
8C\L	8g\L	8cc\L	8ee\L	8ee\L	.
8F\	8a\	8dd\J	8ff\J	8ff\J	6
8C\	8g\	4ccT\	4eet\	4eet\	.
8F#\J	8a\J	.	.	.	6 5
8GG\L	8d\L	4b\	4dd\	4dd\	.
16G\L	16b\L	.	.	.	.
16F#\JJ	16a\JJ	.	.	.	.
8G\L	8b\L	8r	8r	8r	.
8GG\J	8B\J	8dd\	8gg\	8gg\	.
=5	=5	=5	=5	=5	=5
4GG/	4G/	8G/L	8G/L	(16gg\LL	.
.	.	.	.	16ff\J	.
.	.	8ee\	8gg\	8gg\J)	.
4GG/	4G/	8G/	8G/	(16gg\LL	.
.	.	.	.	16ff\J	.
.	.	8ee\J	8gg\J	8gg\J)	.
4GG/	4G/	8G/L	8G/L	8gg\L	.
.	.	8ee\J	8gg\J	(8gg\J	.
4r	4r	8eet\L	8ggT\L	4ccc\)	.
.	.	16dd\L	16ff\L	.	.
.	.	16cc\JJ	16ee\JJ	.	.
=6	=6	=6	=6	=6	=6
4GG/	4G/	8dd\L	8ff\L	(16ff\LL	7
.	.	.	.	16ee\J	.
.	.	8dd\	8ff\	8ff\J)	.
4GG/	4G/	8G/	8G/	(16ff\LL	.
.	.	.	.	16ee\J	.
.	.	8dd\J	8ff\J	8ff\J)	.
4GG/	4G/	8G/L	8G/L	8ff\L	.
.	.	8dd\J	8ff\J	(8ff\J	.
4r	4r	8ddT\L	8fft\L	4bb\)	.
.	.	16cc\L	16ee\L	.	.
.	.	16b\JJ	16dd\JJ	.	.
=7	=7	=7	=7	=7	=7
4GG/	4G/	8cc\L	8ee\L	(16ee\LL	6
.	.	.	.	16dd\J	.
.	.	8cc\	8ee\	8ee\J)	.
4GG/	4G/	8G/	8G/	(16ee\LL	.
.	.	.	.	16dd\J	.
.	.	8cc\J	8ee\J	8ee\J)	.
4GG/	4G/	8G/L	8G/L	8ee\L	.
.	.	8cc\J	8ee\J	(8ee\J	.
4r	4r	8ccT\L	8eet\L	4aa\)	.
.	.	16b\L	16dd\L	.	.
.	.	16a\JJ	16cc\JJ	.	.
=8	=8	=8	=8	=8	=8
4GG/	4G/	4b\	4dd\	16b\LL	.
.	.	.	.	16a\	.
.	.	.	.	16b\	.
.	.	.	.	16cc\JJ	.
8r	8r	8r	8r	16dd\LL	.
.	.	.	.	16cc\	.
8G\	8g\	8g/	8g/	16dd\	.
.	.	.	.	16ee\JJ	.
8GG/L	8G\L	8G/L	8G/L	2ff\	.
8G/	8g\	8g/	8g/	.	.
8GG/	8G\	8G/	8G/	.	.
8G/J	8g\J	8g/J	8g/J	.	.
=9	=9	=9	=9	=9	=9
4GG/	4G/	4G/	4G/	16b\LL	.
.	.	.	.	16a\	.
.	.	.	.	16b\	.
.	.	.	.	16cc\JJ	.
8r	8r	8r	8r	16dd\LL	.
.	.	.	.	16cc\	.
8G\	8g\	8g/	8g/	16dd\	.
.	.	.	.	16ee\JJ	.
8GG/L	8G\L	8G/L	8G/L	2ff\	.
8G/	8g\	8g/	8g/	.	.
8GG/	8G\	8G/	8G/	.	.
8G/J	8g\J	8g/J	8g/J	.	.
=10	=10	=10	=10	=10	=10
4GG/	4G/	4G/	4G/	16ff\LL	.
.	.	.	.	16ee\	.
.	.	.	.	16ff\	.
.	.	.	.	16gg\JJ	.
4r	4r	4r	4r	16aa\LL	.
.	.	.	.	16gg\	.
.	.	.	.	16aa\	.
.	.	.	.	16bb\JJ	.
4C/	4c\	8cc\L	8cc\L	8ccc\L	.
.	.	8gg\J	8gg\J	8gg\J	.
8e\L	8ee\L	8ee\L	8ee\L	8ee\L	.
16d\L	16dd\L	16dd\L	16dd\L	16dd\L	.
16c\JJ	16cc\JJ	16cc\JJ	16cc\JJ	16cc\JJ	.
=11	=11	=11	=11	=11	=11
4d\	4dd\	8dd\L	8dd\L	8dd\L	.
.	.	8gg\J	8gg\J	8gg\J	.
8d\L	8dd\L	8dd\L	8dd\L	8dd\L	.
16c\L	16cc\L	16cc\L	16cc\L	16cc\L	.
16B\JJ	16b\JJ	16b\JJ	16b\JJ	16b\JJ	.
4c\	4cc\	8cc\L	8cc\L	8cc\L	.
.	.	8gg\J	8gg\J	8gg\J	.
8c\L	8cc\L	8cc\L	8cc\L	8cc\L	.
16B\L	16b\L	16b\L	16b\L	16b\L	.
16A\JJ	16a\JJ	16a\JJ	16a\JJ	16a\JJ	.
=12	=12	=12	=12	=12	=12
4B\	4b\	8b\L	8b\L	8b\L	.
.	.	8gg\J	8gg\J	8gg\J	.
8B\L	8b\L	8b/L	8b/L	8b/L	.
16A\L	16a\L	16a/L	16a/L	16a/L	.
16G\JJ	16g\JJ	16g/JJ	16g/JJ	16g/JJ	.
4A\	4a\	8a\L	8a\L	8a\L	.
.	.	8gg\J	8gg\J	8gg\J	.
8A\L	8a\L	8a/L	8a/L	8a/L	.
16G\L	16g\L	16g/L	16g/L	16g/L	.
16F\JJ	16f\JJ	16f/JJ	16f/JJ	16f/JJ	.
=13	=13	=13	=13	=13	=13
8G\L	8g\L	4g/	16g/LL	16g/LL	.
.	.	.	16f/	16f/	.
8G\	8d\	.	16g/	16g/	.
.	.	.	16a/JJ	16a/JJ	.
8G\	8d\	16g/LL	16b\LL	16b\LL	.
.	.	16f/	16a\	16a\	.
8G\J	8d\J	16g/	16b\	16b\	.
.	.	16a/JJ	16cc\JJ	16cc\JJ	.
8G\L	8d\L	16b\LL	16dd\LL	16dd\LL	.
.	.	16a\	16cc\	16cc\	.
8G\	8d\	16b\	16dd\	16dd\	.
.	.	16cc\JJ	16ee\JJ	16ee\JJ	.
8G\	8B\	16dd\LL	16ff\LL	16ff\LL	7
.	.	16cc\	16ee\	16ee\	.
8G\J	8B\J	16dd\	16ff\	16ff\	.
.	.	16ee\JJ	16gg\JJ	16gg\JJ	.
=14	=14	=14	=14	=14	=14
8C/L	8G/L	16ee\LL	16cc\LL	16cc\LL	.
.	.	16dd\	16b\	16b\	.
8C/	8G/	16ee\	16cc\	16cc\	.
.	.	16ff\JJ	16dd\JJ	16dd\JJ	.
8C/	8G/	16cc\LL	16ee\LL	16ee\LL	.
.	.	16b\	16dd\	16dd\	.
8C/J	8G/J	16cc\	16ee\	16ee\	.
.	.	16dd\JJ	16ff\JJ	16ff\JJ	.
8C/L	8G/L	16ee\LL	16gg\LL	16gg\LL	.
.	.	16dd\	16ff\	16ff\	.
8C/	8G/	16ee\	16gg\	16gg\	.
.	.	16ff\JJ	16aa\JJ	16aa\JJ	.
8C/	8e/	16gg\LL	16bb-\LL	16bb-\LL	b7
.	.	16ff\	16aa\	16aa\	.
8C/J	8e/J	16gg\	16bb-\	16bb-\	.
.	.	16aa\JJ	16ccc\JJ	16ccc\JJ	.
=15	=15	=15	=15	=15	=15
8F\L	8c\L	16ff\LL	16aa\LL	16aa\LL	.
.	.	16gg\	16bb-\	16bb-\	.
8F\	8c\	16ff\	16aa\	16aa\	.
.	.	16ee\JJ	16gg\JJ	16gg\JJ	.
8F\	8c\	16dd\LL	16ff\LL	16ff\LL	.
.	.	16cc\	16ee\	16ee\	.
8F\J	8c\J	16b\	16dd\	16dd\	.
.	.	16a\JJ	16cc\JJ	16cc\JJ	.
*	*	*strophe	*	*	*
*	*	*^	*	*	*
*	*	*S/S	*S/A	*	*	*
8F\L	8c\L	16aa\LL	16aa\LL	16ff\LL	16ff\LL	.
.	.	16bb-\	16bb\	16gg\	16gg\	.
*	*	*S/fin	*S/fin	*	*	*
*	*	*v	*v	*	*	*
*	*	*S-	*	*	*
8F\	8c\	16aa\	16ff\	16ff\	.
.	.	16gg\JJ	16ee\JJ	16ee\JJ	.
8F\	8a\	16ff\LL	16dd\LL	16dd\LL	6
.	.	16ee\	16cc\	16cc\	.
8F\J	8a\J	16dd\	16b\	16b\	.
.	.	16cc\JJ	16a\JJ	16a\JJ	.
=16	=16	=16	=16	=16	=16
8G\L	8d\L	8b/L	8g/L	8g/L	.
8C\	8e\	8cc/	8cc/	8cc/	.
8G\	8d\	8G/	8G/	8G/	.
8GG\J	8d\J	8b/J	8b/J	8b/J	.
8C/L	8e\L	4cc\	16cc\LL	16cc\LL	.
.	.	.	16b\	16b\	.
8C/	8e\	.	16cc\	16cc\	.
.	.	.	16dd\JJ	16dd\JJ	.
8C/	8e\	16cc\LL	16ee\LL	16ee\LL	.
.	.	16b\	16dd\	16dd\	.
8C/J	8e\J	16cc\	16ee\	16ee\	.
.	.	16dd\JJ	16ff\JJ	16ff\JJ	.
=17	=17	=17	=17	=17	=17
8C/L	8e\L	16ee\LL	16gg\LL	16gg\LL	.
.	.	16dd\	16ff\	16ff\	.
8C/	8e\	16ee\	16gg\	16gg\	.
.	.	16ff\JJ	16aa\JJ	16aa\JJ	.
8C/	8e\	16gg\LL	16bb-\LL	16bb-\LL	b7
.	.	16ff\	16aa\	16aa\	.
8C/J	8e\J	16gg\	16bb-\	16bb-\	.
.	.	16aa\JJ	16ccc\JJ	16ccc\JJ	.
8F\L	8c\L	16ff\LL	16aa\LL	16aa\LL	.
.	.	16gg\	16bb-\	16bb-\	.
8F\	8c\	16ff\	16aa\	16aa\	.
.	.	16ee\JJ	16gg\JJ	16gg\JJ	.
8F\	8c\	16dd\LL	16ff\LL	16ff\LL	.
.	.	16cc\	16ee\	16ee\	.
8F\J	8c\J	16b\	16dd\	16dd\	.
.	.	16a\JJ	16cc\JJ	16cc\JJ	.
=18	=18	=18	=18	=18	=18
8F\L	8c\L	16aa\LL	16ff\LL	16ff\LL	.
.	.	16bb\	16gg\	16gg\	.
8F\	8c\	16aa\	16ff\	16ff\	.
.	.	16gg\JJ	16ee\JJ	16ee\JJ	.
8F\	8a\	16ff\LL	16dd\LL	16dd\LL	6
.	.	16ee\	16cc\	16cc\	.
8F\J	8a\J	16dd\	16b\	16b\	.
.	.	16cc\JJ	16a\JJ	16a\JJ	.
8G\L	8d\L	8b/L	8g/L	8g/L	.
8C\	8e\	8cc/	8cc/	8cc/	.
8G\	8d\	8G/	8G/	8G/	.
8GG\J	8d\J	8b/J	8b/J	8b/J	.
=19	=19	=19	=19	=19	=19
4C/	4e\	4cc\	4cc\	4cc\	.
4r	4r	4r	4r	4r	.
4C/	2r	2r	2r	(16cc\LL	.
.	.	.	.	16dd\J	.
.	.	.	.	8ee\J)	.
4BB/	.	.	.	(16dd\LL	6 5
.	.	.	.	16ee\J	.
.	.	.	.	8ff\J)	.
=20	=20	=20	=20	=20	=20
4C/	1r	1r	1r	(16ee\LL	.
.	.	.	.	16ff\J	.
.	.	.	.	8gg\J)	.
4D\	.	.	.	(16ff\LL	.
.	.	.	.	16gg\J	.
.	.	.	.	8aa\J)	.
2E\	.	.	.	8gg\L	6
.	.	.	.	16ff\L	.
.	.	.	.	16ee\JJ	.
.	.	.	.	8dd\L	.
.	.	.	.	8cc\J	.
=21	=21	=21	=21	=21	=21
4F\	1r	1r	1r	16ff	.
.	.	.	.	16gg	.
.	.	.	.	8a\	.
4E\	.	.	.	4gg\	6
4C/	.	.	.	(16cc\LL	.
.	.	.	.	16dd\J	.
.	.	.	.	8ee\J)	.
4BB/	.	.	.	(16dd\LL	6 5
.	.	.	.	16ee\J	.
.	.	.	.	8ff\J)	.
=22	=22	=22	=22	=22	=22
4C/	1r	1r	1r	(16ee\LL	.
.	.	.	.	16ff\J	.
.	.	.	.	8gg\J)	.
4D\	.	.	.	(16ff\LL	.
.	.	.	.	16gg\J	.
.	.	.	.	8aa\J)	.
4E\	.	.	.	8gg\L	6
.	.	.	.	16ff\L	.
.	.	.	.	16ee\JJ	.
4F#\	.	.	.	8dd\L	6 5
.	.	.	.	8cc\J	.
=23	=23	=23	=23	=23	=23
8G\L	1r	1r	1r	4cc\	4
8F#\	.	.	.	.	5
8G\	.	.	.	4b\	.
8GG\J	.	.	.	.	.
8C\L	.	.	.	16ee\LL	.
.	.	.	.	16gg\	.
8c\	.	.	.	16ff\	.
.	.	.	.	16gg\JJ	.
8c\	.	.	.	16ee\LL	.
.	.	.	.	16dd\	.
8c\J	.	.	.	16cc\	.
.	.	.	.	16ee\JJ	.
=24	=24	=24	=24	=24	=24
8B\L	1r	1r	1r	16dd\LL	6
.	.	.	.	16gg\	.
8B\	.	.	.	16ff\	.
.	.	.	.	16gg\JJ	.
8B\	.	.	.	16dd\LL	.
.	.	.	.	16cc\	.
8B\J	.	.	.	16b\	.
.	.	.	.	16dd\JJ	.
8A\L	.	.	.	16cc\LL	7
.	.	.	.	16gg\	.
8A\	.	.	.	16ff\	.
.	.	.	.	16gg\JJ	.
8A\	.	.	.	16cc\LL	6
.	.	.	.	16b\	.
8A\J	.	.	.	16a\	.
.	.	.	.	16cc\JJ	.
=25	=25	=25	=25	=25	=25
8G\L	1r	1r	1r	(16b\LL	.
.	.	.	.	16cc\J	.
8G\	.	.	.	8dd\J)	.
8A\	.	.	.	(16cc\LL	.
.	.	.	.	16dd\J	.
8A\J	.	.	.	8ee\J)	.
8B\L	.	.	.	(16dd\LL	.
.	.	.	.	16ee\J	.
8B\	.	.	.	8ff\J)	.
8c\	.	.	.	(16ee\LL	.
.	.	.	.	16ff#\J	.
8c\J	.	.	.	8gg\J)	.
=26	=26	=26	=26	=26	=26
8d\L	1r	1r	1r	16ff#\LL	#
.	.	.	.	16aa\	.
8d\	.	.	.	16gg\	.
.	.	.	.	16aa\JJ	.
8D\	.	.	.	16ff#\LL	#
.	.	.	.	16ee\	.
8D\J	.	.	.	16dd\	.
.	.	.	.	16cc\JJ	.
8G\L	.	.	.	8b/L	.
8G\	.	.	.	16a/L	.
.	.	.	.	16g/JJ	.
8D\	.	.	.	4aT/	#
8D\J	.	.	.	.	.
=27	=27	=27	=27	=27	=27
8GG\L	4.d\	4.bb\	4.gg\	4g/	.
16G\L	.	.	.	.	.
16F#\JJ	.	.	.	.	.
8G\L	.	.	.	4r	.
8GG\J	8d\	16ccc\LL	16aa\LL	.	.
.	.	16bb\JJ	16gg\JJ	.	.
8D\L	4.d\	4.aa\	4.ff#\	4.ff#\	#
16d\L	.	.	.	.	.
16c\JJ	.	.	.	.	.
8d\L	.	.	.	.	.
8D\J	8d\	16gg\LL	16ee\LL	16ee\LL	.
.	.	16ff#\JJ	16dd\JJ	16dd\JJ	.
=28	=28	=28	=28	=28	=28
8G\L	8d\L	8gg\L	8bb\L	8bb\L	.
8C\	8e\	8aa\J	8ccc\J	8ccc\J	6
8G\	8d\	4gg\	4bb\	4bb\	.
8C#\J	8e\J	.	.	.	7
8D\L	4A/	4.ff#\	4.aa\	4.aa\	#
16d\L	.	.	.	.	.
16c\JJ	.	.	.	.	.
8d\L	8f#\L	.	.	.	.
8G\J	8d\J	8gg\	8gg\	8gg\	.
=29	=29	=29	=29	=29	=29
8GG\L	4.d\	4.bb\	4.gg\	4.gg\	.
16G\L	.	.	.	.	.
16F#\JJ	.	.	.	.	.
8G\L	.	.	.	.	.
8GG\J	8d\	16ccc\LL	16aa\LL	16aa\LL	.
.	.	16bb\JJ	16gg\JJ	16gg\JJ	.
8D\L	4.d\	4.aa\	4.ff#\	4.ff#\	#
16d\L	.	.	.	.	.
16c\JJ	.	.	.	.	.
8d\L	.	.	.	.	.
8D\J	8d\	16gg\LL	16ee\LL	16ee\LL	.
.	.	16ff#\JJ	16dd\JJ	16dd\JJ	.
=30	=30	=30	=30	=30	=30
8G\L	8d\L	8gg\L	8bb\L	8bb\L	.
8C\	8e\	8aa\J	8ccc\J	8ccc\J	6
8G\	8d\	4gg\	4bb\	4bb\	.
8C#\J	8e\J	.	.	.	7
8D\L	4d\	4ff#\	4aa\	4aa\	#
16d\L	.	.	.	.	.
16c#\JJ	.	.	.	.	.
8d\L	8r	8r	8r	8r	.
8D\J	8d\	8aa\	8ddd\	8ddd\	.
=31	=31	=31	=31	=31	=31
4D\	4d\	8d/L	8d/L	8d/L	6 4
.	.	8bb\	8ddd\	8ddd\	.
4D\	4d\	8d/	8d/	8d/	.
.	.	8bb\J	8ddd\J	8ddd\J	.
4D\	4d\	8d/L	8d/L	8d/L	.
.	.	8bb\J	8ddd\J	8ddd\J	.
4r	4r	8bbt\L	8ddd\L	8ddd\L	.
.	.	16aa\L	16ccc\L	16ccc\L	.
.	.	16gg\JJ	16bb\JJ	16bb\JJ	.
=32	=32	=32	=32	=32	=32
4D\	4d\	8aa\L	8ccc\L	8ccc\L	7 5
.	.	8aa\	8ccc\	8ccc\	.
4D\	4d\	8d/	8d/	8d/	.
.	.	8aa\J	8ccc\J	8ccc\J	.
4D\	4d\	8d/L	8d/L	8d/L	.
.	.	8aa\J	8ccc\J	8ccc\J	.
4r	4r	8aaT\L	8ccc\L	8ccc\L	.
.	.	16gg\L	16bb\L	16bb\L	.
.	.	16ff#\JJ	16aa\JJ	16aa\JJ	.
=33	=33	=33	=33	=33	=33
4D\	4d\	8gg\L	8bb\L	8bb\L	6 4
.	.	8gg\	8bb\	8bb\	.
4D\	4d\	8d/	8d/	8d/	.
.	.	8gg\J	8bb\J	8bb\J	.
4D\	4d\	8d/L	8d/L	8d/L	.
.	.	8gg\J	8bb\J	8bb\J	.
4r	4r	8ggT\L	8bb\L	8bb\L	.
.	.	16ff#\L	16aa\L	16aa\L	.
.	.	16ee\JJ	16gg\JJ	16gg\JJ	.
=34	=34	=34	=34	=34	=34
4D\	4d\	8ff#\L	8aa\L	8aa\L	#
.	.	8ff#\	8aa\	8aa\	.
4D\	4d\	8d/	8d/	8d/	.
.	.	8ff#\J	8aa\J	8aa\J	.
4D\	4d\	8d/L	8d/L	8d/L	.
.	.	8ff#\J	8aa\J	8aa\J	.
4r	4r	8ff#T\L	8aa\L	8aa\L	.
.	.	16ee\L	16gg\L	16gg\L	.
.	.	16dd\JJ	16ff#\JJ	16ff#\JJ	.
=35	=35	=35	=35	=35	=35
8GG/L	8d\L	8bb\L	8gg\L	8gg\L	.
8GG/	8d\	8g\	8b\	8b\	.
8D/	8d\	8f#\	8a\	8a\	5 4
8DD/J	8d\J	8a\J	8ff#\J	8ff#\J	#
[2GG/	4d\ 4B\	4g/	4gg\	16gg\LL	.
.	.	.	.	16dd\	.
.	.	.	.	16ee\	.
.	.	.	.	16cc\JJ	.
.	4r	4r	4r	16dd\LL	.
.	.	.	.	16b\	.
.	.	.	.	16cc\	.
.	.	.	.	16a\JJ	.
=36	=36	=36	=36	=36	=36
1GG_/	1r	1r	1r	16b\LL	.
.	.	.	.	16g\	.
.	.	.	.	16dd\	.
.	.	.	.	16b\JJ	.
.	.	.	.	16ee\LL	.
.	.	.	.	16cc\	.
.	.	.	.	16ff#\	.
.	.	.	.	16dd\JJ	.
.	.	.	.	16gg\LL	.
.	.	.	.	16dd\	.
.	.	.	.	16ee\	.
.	.	.	.	16cc\JJ	.
.	.	.	.	16dd\LL	.
.	.	.	.	16b\	.
.	.	.	.	16cc\	.
.	.	.	.	16a\JJ	.
=37	=37	=37	=37	=37	=37
2GG_/	1r	1r	1r	16b\LL	.
.	.	.	.	16g\	.
.	.	.	.	16dd\	.
.	.	.	.	16b\JJ	.
.	.	.	.	16ee\LL	.
.	.	.	.	16cc\	.
.	.	.	.	16ff#\	.
.	.	.	.	16dd\JJ	.
8GG/L]	.	.	.	4gg\	.
8AA/	.	.	.	.	.
8BB/	.	.	.	16r	6
.	.	.	.	16dd\LL	.
8AA/J	.	.	.	16cc\	.
.	.	.	.	16dd\JJ	.
=38	=38	=38	=38	=38	=38
8GG/L	1r	1r	1r	16b\LL	.
.	.	.	.	16dd\	.
8AA/	.	.	.	16cc\	.
.	.	.	.	16dd\JJ	.
8BB/	.	.	.	16g\LL	6
.	.	.	.	16dd\	.
8GG/J	.	.	.	16cc\	.
.	.	.	.	16dd\JJ	.
8C\L	.	.	.	16ee\LL	.
.	.	.	.	16ff#\J	.
8D\	.	.	.	[8gg\J	.
8E\	.	.	.	16gg\LL]	.
.	.	.	.	16cc\	.
8C\J	.	.	.	16b\	.
.	.	.	.	16cc\JJ	.
=39	=39	=39	=39	=39	=39
8FF#/L	1r	1r	1r	16a\LL	.
.	.	.	.	16cc\	.
8GG/	.	.	.	16b\	.
.	.	.	.	16cc\JJ	.
8AA/	.	.	.	16f#\LL	.
.	.	.	.	16cc\	.
8FF#/J	.	.	.	16b\	.
.	.	.	.	16cc\JJ	.
8BB/L	.	.	.	16dd\LL	.
.	.	.	.	16ee\J	.
8C/	.	.	.	[8ff#\J	.
8D/	.	.	.	16ff#\LL]	.
.	.	.	.	16b\	.
8BB/J	.	.	.	16a\	.
.	.	.	.	16b\JJ	.
=40	=40	=40	=40	=40	=40
8E\L	1r	1r	1r	16g/LL	.
.	.	.	.	16b/	.
8F\	.	.	.	16a/	.
.	.	.	.	16b/JJ	.
8G\	.	.	.	16e/LL	.
.	.	.	.	16b/	.
8E\J	.	.	.	16a/	.
.	.	.	.	16b/JJ	.
8AA/L	.	.	.	16cc\LL	.
.	.	.	.	16dd\J	.
8BB/	.	.	.	[8ee\J	.
8C/	.	.	.	16ee/LL]	.
.	.	.	.	16a/	.
8AA/J	.	.	.	16g/	.
.	.	.	.	16a/JJ	.
=41	=41	=41	=41	=41	=41
8D\L	1r	1r	1r	16f#/LL	#
.	.	.	.	16a/	.
8E\	.	.	.	16g/	.
.	.	.	.	16a/JJ	.
8F#\	.	.	.	16d/LL	6
.	.	.	.	16a/	.
8D\J	.	.	.	16g/	.
.	.	.	.	16a/JJ	.
8G\L	.	.	.	(16b\LL	.
.	.	.	.	16cc\J	.
8G\	.	.	.	8dd\J)	.
8F#\	.	.	.	(16b\LL	6 4
.	.	.	.	16cc\J	.
8F#\J	.	.	.	8dd\J)	.
=42	=42	=42	=42	=42	=42
8E\L	2r	2r	2r	(16b\LL	.
.	.	.	.	16cc\J	.
8E\	.	.	.	8dd\J)	.
8D\	.	.	.	(16b\LL	6 4
.	.	.	.	16cc\J	.
8C\J	.	.	.	8dd\J)	.
4G\	4g\	8g\L	8g\L	8b\L	.
.	.	8dd\J	8dd\J	8dd\J	.
8B\L	8b\L	8b/L	8b/L	8b/L	6
16A\L	16a\L	16a/L	16a/L	16a/L	.
16G\JJ	16g\JJ	16g/JJ	16g/JJ	16g/JJ	.
=43	=43	=43	=43	=43	=43
4A\	4a\	8a\L	8a\L	8a\L	6 4
.	.	8dd\J	8dd\J	8dd\J	.
8A\L	8a\L	8a/L	8a/L	8a/L	.
16G\L	16g\L	16g/L	16g/L	16g/L	.
16F#\JJ	16f#\JJ	16f#/JJ	16f#/JJ	16f#/JJ	.
4G\	4g\	8g\L	8g\L	8g\L	.
.	.	8dd\J	8dd\J	8dd\J	.
8G\L	8g\L	8g/L	8g/L	8g/L	.
16F#\L	16f#\L	16f#/L	16f#/L	16f#/L	.
16E\JJ	16e\JJ	16e/JJ	16e/JJ	16e/JJ	.
=44	=44	=44	=44	=44	=44
4F#\	4f#\	8f#/L	8f#/L	8f#/L	6
.	.	8dd/J	8dd/J	8dd/J	.
8F#\L	8f#\L	8f#/L	8f#/L	8f#/L	.
16E\L	16e\L	16e/L	16e/L	16e/L	.
16D\JJ	16d\JJ	16d/JJ	16d/JJ	16d/JJ	.
4E\	4e\	8e/L	8e/L	8e/L	7
.	.	8dd/J	8dd/J	8dd/J	.
8E\L	8e\L	8e/L	8e/L	8e/L	.
16D\L	16d\L	16d/L	16d/L	16d/L	.
16C\JJ	16c\JJ	16c/JJ	16c/JJ	16c/JJ	.
=45	=45	=45	=45	=45	=45
1D\	4d\	4d/	4d/	16d/LL	#
.	.	.	.	16f#/	.
.	.	.	.	16e/	.
.	.	.	.	16g/JJ	.
.	4r	4r	4r	16f#/LL	.
.	.	.	.	16a/	.
.	.	.	.	16g/	.
.	.	.	.	16b/JJ	.
.	2r	2r	2r	16a\LL	.
.	.	.	.	16cc\	.
.	.	.	.	16b\	.
.	.	.	.	16dd\JJ	.
.	.	.	.	16cc\LL	.
.	.	.	.	16ee\	.
.	.	.	.	16dd\	.
.	.	.	.	16cc\JJ	.
=46	=46	=46	=46	=46	=46
4GG/	8G/L	8b\L	8dd\L	16b/LL	.
.	.	.	.	16g/	.
.	8G/	8b\	8dd\	16f#/	.
.	.	.	.	16g/JJ	.
4r	8G/	8b\	8dd\	16b\LL	.
.	.	.	.	16dd\	.
.	8G/J	8b\J	8dd\J	16cc\	.
.	.	.	.	16dd\JJ	.
2r	8G#/L	8b\L	8ee\L	16ee\LL	.
.	.	.	.	16b\	.
.	8G#/	8b\	8ee\	16a\	.
.	.	.	.	16b\JJ	.
.	8G#/	8b\	8ee\	16ee\LL	.
.	.	.	.	16b\	.
.	8G#/J	8b\J	8ee\J	16a\	.
.	.	.	.	16b\JJ	.
=47	=47	=47	=47	=47	=47
1r	8G#/L	8b\L	8ee\L	16ee\LL	.
.	.	.	.	16b\	.
.	8G#/	8b\	8ee\	16a\	.
.	.	.	.	16b\JJ	.
.	8G#/	8b\	8ee\	16ee\LL	.
.	.	.	.	16b\	.
.	8G#/J	8b\J	8ee\J	16a\	.
.	.	.	.	16b\JJ	.
.	8A/L	8cc\L	8ee\L	16cc/LL	.
.	.	.	.	16a/	.
.	8A/	8cc\	8ee\	16g/	.
.	.	.	.	16a/JJ	.
.	8A/	8cc\	8ee\	16cc/LL	.
.	.	.	.	16a/	.
.	8A/J	8cc\J	8ee\J	16g/	.
.	.	.	.	16a/JJ	.
=48	=48	=48	=48	=48	=48
1r	8A/L	8cc\L	8ee\L	16cc/LL	.
.	.	.	.	16a/	.
.	8A/	8cc\	8ee\	16g/	.
.	.	.	.	16a/JJ	.
.	8A/	8cc\	8ee\	16cc/LL	.
.	.	.	.	16a/	.
.	8A/J	8cc\J	8ee\J	16g/	.
.	.	.	.	16a/JJ	.
.	8A#/L	8cc#\L	8ff#\L	16ff#\LL	.
.	.	.	.	16cc#\	.
.	8A#/	8cc#\	8ff#\	16b\	.
.	.	.	.	16cc#\JJ	.
.	8A#/	8cc#\	8ff#\	16ff#\LL	.
.	.	.	.	16cc#\	.
.	8A#/J	8cc#\J	8ff#\J	16b\	.
.	.	.	.	16cc#\JJ	.
=49	=49	=49	=49	=49	=49
1r	8A#/L	8cc#\L	8ff#\L	16ff#\LL	.
.	.	.	.	16cc#\	.
.	8A#/	8cc#\	8ff#\	16b\	.
.	.	.	.	16cc#\JJ	.
.	8A#/	8cc#\	8ff#\	16ff#\LL	.
.	.	.	.	16cc#\	.
.	8A#/J	8cc#\J	8ff#\J	16b\	.
.	.	.	.	16cc#\JJ	.
.	8B/L	8dd#\L	8ff#\L	16dd#\LL	.
.	.	.	.	16b\	.
.	8B/	8dd#\	8ff#\	16a\	.
.	.	.	.	16b\JJ	.
.	8B/	8ee\	8gg\	16ee\LL	.
.	.	.	.	16b\	.
.	8B/J	8ee\J	8gg\J	16a\	.
.	.	.	.	16b\JJ	.
=50	=50	=50	=50	=50	=50
1r	8B/L	8dd#\L	8ff#\L	16ff#\LL	.
.	.	.	.	16b\	.
.	8B/	8dd#\	8ff#\	16a\	.
.	.	.	.	16b\JJ	.
.	8B/	8ee\	8gg\	16gg\LL	.
.	.	.	.	16b\	.
.	8B/J	8ee\J	8gg\J	16a\	.
.	.	.	.	16b\JJ	.
.	8B/L	8ff#\L	8aa\L	16aa\LL	.
.	.	.	.	16ff#\	.
.	8B/	8ee\	8gg\	16gg\	.
.	.	.	.	16ee\JJ	.
.	8B/	8ff#\	8aa\	16aa\LL	.
.	.	.	.	16ff#\	.
.	8B/J	8ee\J	8gg\J	16gg\	.
.	.	.	.	16ee\JJ	.
=51	=51	=51	=51	=51	=51
2r	8B/L	8dd#\L	8ff#\L	16dd#\LL	.
.	.	.	.	16b\	.
.	8B/	8ee\	8gg\	16gg\	.
.	.	.	.	16ee\JJ	.
.	8B/	8ee\	8ff#\	8.dd#t\L	.
.	8B/J	8dd#\J	8ff#\J	.	.
.	.	.	.	16ee\Jk	.
8E\L	4.B/	4.ee\	4.gg\	4ee\	.
16e\L	.	.	.	.	.
16d#\JJ	.	.	.	.	.
8e\L	.	.	.	4r	.
8E\J	8b\	16ff#\LL	16aa\LL	.	.
.	.	16ee\JJ	16gg\JJ	.	.
=52	=52	=52	=52	=52	=52
8BB\L	4.b\	4.dd#\	4.ff#\	4.ff#\	#
16B\L	.	.	.	.	.
16A\JJ	.	.	.	.	.
8B\L	.	.	.	.	.
8BB\J	8b\	16cc#\LL	16ee\LL	16ee\LL	.
.	.	16b\JJ	16dd#\JJ	16dd#\JJ	.
8E/L	8b\L	8gg\L	8ee\L	8ee\L	.
8AA/	8cc\	8aa\J	8ff#\J	8ff#\J	6
8E/	8b\	4gg\	4ee\	4ee\	.
8AA#/J	8cc#\J	.	.	.	6 5
=53	=53	=53	=53	=53	=53
8BB\L	4f#\	4.ff#\	4.dd#\	4.dd#\	#
16B\L	.	.	.	.	.
16A\JJ	.	.	.	.	.
8B\L	8dd#\L	.	.	.	.
8E\J	8b\J	8ee\	8gg\	8gg\	.
8E\L	4.b\	4.ee\	4.gg\	4.gg\	.
16e\L	.	.	.	.	.
16d#\JJ	.	.	.	.	.
8e\L	.	.	.	.	.
8E\J	8b\	16ff#\LL	16aa\LL	16aa\LL	.
.	.	16ee\JJ	16gg\JJ	16gg\JJ	.
=54	=54	=54	=54	=54	=54
8BB\L	4.b\	4.dd#\	4.ff#\	4.ff#\	#
16B\L	.	.	.	.	.
16A\JJ	.	.	.	.	.
8B\L	.	.	.	.	.
8BB\J	8b\	16cc#\LL	16ee\LL	16ee\LL	.
.	.	16b\JJ	16dd#\JJ	16dd#\JJ	.
8E/L	8b\L	8gg\L	8ee\L	8ee\L	.
8AA/	8cc\	8aa\J	8ff#\J	8ff#\J	6
8E/	8b\	4gg\	4ee\	4ee\	.
8AA#/J	8cc#\J	.	.	.	6\ 5
=55	=55	=55	=55	=55	=55
8BB\L	4f#\	4ff#\	4dd#\	4dd#\	#
16B\L	.	.	.	.	.
16A\JJ	.	.	.	.	.
8B\L	8r	8r	8r	8r	.
8BB\J	8d#\	8ff#\	8bb\	8ff#\	.
4BB/	4d#\	8B/L	8B/L	(16ff#\LL	#
.	.	.	.	16ee\J	.
.	.	8ff#\	8bb\	8ff#\J)	.
4BB/	4d#\	8B/	8B/	(16ff#\LL	.
.	.	.	.	16ee\J	.
.	.	8ff#\J	8bb\J	8ff#\J)	.
=56	=56	=56	=56	=56	=56
*	*	*	*	*strophe	*
*	*	*	*	*^	*
*	*	*	*	*S/S	*S/A	*
4BB/	4d#\	8B/L	8B/L	8ff#\L	8ff\L	.
.	.	8ff#\J	8bb\J	(8ff#\J	(8ff\J	.
*	*	*	*	*S/fin	*S/fin	*
*	*	*	*	*v	*v	*
*	*	*	*	*S-	*
4r	4r	8ff#\L	8bb\L	4bb\)	.
.	.	16ff#\L	16aa\L	.	.
.	.	16ee\JJ	16gg\JJ	.	.
4BB/	4d#\	8ff#\L	8aa\L	(16ff#\LL	.
.	.	.	.	16ee\J	.
.	.	8ff#\	8aa\	8ff#\J)	.
4BB/	4d#\	8B/	8B/	(16ff#\LL	.
.	.	.	.	16ee\J	.
.	.	8ff#\J	8aa\J	8ff#\J)	.
=57	=57	=57	=57	=57	=57
4BB/	4d#\	8B/L	8B/L	8ff#\L	.
.	.	8ff#\J	8aa\J	(8ff#\J	.
4r	4r	8ff#\L	8aa\L	4aa\)	.
.	.	16ee\L	16gg\L	.	.
.	.	16dd#\JJ	16ff#\JJ	.	.
4E\	4B/	8ee\L	8gg\L	(16ee\LL	.
.	.	.	.	16dd#\J	.
.	.	8ee\	8gg\	8ee\J)	.
4E\	4B/	8e\	8e\	(16ee\LL	.
.	.	.	.	16dd#\J	.
.	.	8ee\J	8gg\J	8ee\J)	.
=58	=58	=58	=58	=58	=58
4E\	4B/	8e\L	8e\L	8ee\L	.
.	.	8ee\J	8gg\J	(8ee\J	.
4r	4r	8ee\L	8gg\L	4gg\)	.
.	.	16dd#\L	16ff#\L	.	.
.	.	16cc#\JJ	16ee\JJ	.	.
8D#\L	8f#\L	16b\LL	16b\LL	16b\LL	6 5
.	.	16a\	16a\	16a\	.
8D#\	8f#\	16b\	16b\	16b\	.
.	.	16cc#\JJ	16cc#\JJ	16cc#\JJ	.
8D#\	8f#\	16dd#\LL	16dd#\LL	16dd#\LL	.
.	.	16cc#\	16cc#\	16cc#\	.
8D#\J	8f#\J	16dd#\	16dd#\	16dd#\	.
.	.	16ee\JJ	16ee\JJ	16ee\JJ	.
=59	=59	=59	=59	=59	=59
8D#\L	8f#\L	16ff#\LL	16ff#\LL	16ff#\LL	6 5
.	.	16ee\	16ee\	16ee\	.
8D#\	8f#\	16ff#\	16ff#\	16ff#\	.
.	.	16gg\JJ	16gg\JJ	16gg\JJ	.
8D#\	8d#\	16aa\LL	16aa\LL	16aa\LL	.
.	.	16gg\	16gg\	16gg\	.
8D#\J	8d#\J	16aa\	16aa\	16aa\	.
.	.	16ff#\JJ	16ff#\JJ	16ff#\JJ	.
8E\L	8B/L	16e/LL	16e/LL	16e/LL	#
.	.	16d/	16d/	16d/	.
8E\	8B/	16e/	16e/	16e/	.
.	.	16f#/JJ	16f#/JJ	16f#/JJ	.
8E\	8B/	16g#/LL	16g#/LL	16g#/LL	.
.	.	16f#/	16f#/	16f#/	.
8E\J	8B/J	16g#/	16g#/	16g#/	.
.	.	16a/JJ	16a/JJ	16a/JJ	.
=60	=60	=60	=60	=60	=60
8E\L	8g#\L	16b\LL	16b\LL	16b\LL	#
.	.	16a\	16a\	16a\	.
8E\	8g#\	16b\	16b\	16b\	.
.	.	16cc\JJ	16cc\JJ	16cc\JJ	.
8E\	8e\	16dd\LL	16dd\LL	16dd\LL	7
.	.	16cc\	16cc\	16cc\	.
8E\J	8e\J	16dd\	16dd\	16dd\	.
.	.	16b\JJ	16b\JJ	16b\JJ	.
8AA/L	8c#\L	16a/LL	16a/LL	16a/LL	.
.	.	16g#/	16g#/	16g#/	.
8AA/	8c#\	16a/	16a/	16a/	.
.	.	16b/JJ	16b/JJ	16b/JJ	.
8AA/	8c#\	16cc#\LL	16cc#\LL	16cc#\LL	.
.	.	16b\	16b\	16b\	.
8AA/J	8c#\J	16cc#\	16cc#\	16cc#\	.
.	.	16dd#\JJ	16dd#\JJ	16dd#\JJ	.
=61	=61	=61	=61	=61	=61
8AA#/L	8c#/L	16ee\LL	16ee\LL	16ee\LL	6 5
.	.	16dd#\	16dd#\	16dd#\	.
8AA#/	8c#/	16ee\	16ee\	16ee\	.
.	.	16ff#\JJ	16ff#\JJ	16ff#\JJ	.
8AA#/	8A#/	16gg\LL	16gg\LL	16gg\LL	.
.	.	16ff#\	16ff#\	16ff#\	.
8AA#/J	8A#/J	16gg\	16gg\	16gg\	.
.	.	16ee\JJ	16ee\JJ	16ee\JJ	.
8BB/L	8F#\L	16b\LL	16b\LL	16b\LL	#
.	.	16a\	16a\	16a\	.
8BB/	8f#\	16b\	16b\	16b\	.
.	.	16cc#\JJ	16cc#\JJ	16cc#\JJ	.
8BB/	8f#\	16dd#\LL	16dd#\LL	16dd#\LL	.
.	.	16cc#\	16cc#\	16cc#\	.
8BB/J	8f#\J	16dd#\	16dd#\	16dd#\	.
.	.	16ee\JJ	16ee\JJ	16ee\JJ	.
=62	=62	=62	=62	=62	=62
8BB/L	8f#\L	16ff#\LL	16ff#\LL	16ff#\LL	#
.	.	16ee\	16ee\	16ee\	.
8BB/	8f#\	16ff#\	16ff#\	16ff#\	.
.	.	16gg\JJ	16gg\JJ	16gg\JJ	.
8BB/	8d#\	16aa\LL	16aa\LL	16aa\LL	7
.	.	16gg\	16gg\	16gg\	.
8BB/J	8d#\J	16aa\	16aa\	16aa\	.
.	.	16ff#\JJ	16ff#\JJ	16ff#\JJ	.
8E/L	8B\L	8gg\L	8gg\L	8gg\L	.
8E/	8b\	8ee\	8ee\	8ee\	.
8AA/	8cc\	8ff#\	8ff#\	8ff#\	6
8BB/J	8f#\J	8dd#\J	8dd#\J	8dd#\J	#
=63	=63	=63	=63	=63	=63
4EE/	8g\L	8ee/L	8ee\L	16ee\LL	.
.	.	.	.	16b\	.
.	8e\	8g/	8b\	16ee\	.
.	.	.	.	16gg\JJ	.
4r	8e\	8g/	8b\	16ee\LL	.
.	.	.	.	16b\	.
.	8e\J	8g/J	8b\J	16ee\	.
.	.	.	.	16gg\JJ	.
2r	8A/L	8e/L	8cc\L	16cc\LL	.
.	.	.	.	16a\	.
.	8A/	8e/	8cc\	16cc\	.
.	.	.	.	16ee\JJ	.
.	8A/	8e/	8cc\	16cc\LL	.
.	.	.	.	16a\	.
.	8A/J	8e/J	8cc\J	16cc\	.
.	.	.	.	16ee\JJ	.
=64	=64	=64	=64	=64	=64
1r	8F#/L	8a/L	8dd\L	16dd\LL	.
.	.	.	.	16a\	.
.	8F#/	8a/	8dd\	16dd\	.
.	.	.	.	16ff#\JJ	.
.	8F#/	8a/	8dd\	16dd\LL	.
.	.	.	.	16a\	.
.	8F#/J	8a/J	8dd\J	16dd\	.
.	.	.	.	16ff#\JJ	.
.	8G/L	8d/L	8b\L	16b\LL	.
.	.	.	.	16g\	.
.	8G/	8d/	8b\	16b\	.
.	.	.	.	16dd\JJ	.
.	8G/	8d/	8b\	16b\LL	.
.	.	.	.	16g\	.
.	8G/J	8d/J	8b\J	16b\	.
.	.	.	.	16dd\JJ	.
=65	=65	=65	=65	=65	=65
1r	8E/L	8g/L	8cc\L	16cc\LL	.
.	.	.	.	16g\	.
.	8E/	8g/	8cc\	16cc\	.
.	.	.	.	16ee\JJ	.
.	8E/	8g/	8cc\	16cc\LL	.
.	.	.	.	16g\	.
.	8E/J	8g/J	8cc\J	16cc\	.
.	.	.	.	16ee\JJ	.
.	8F/L	8a\L	8cc\L	16a/LL	.
.	.	.	.	16f/	.
.	8F/	8a\	8cc\	16a/	.
.	.	.	.	16cc/JJ	.
.	8F/	8cc\	8ff\	16a/LL	.
.	.	.	.	16f/	.
.	8F/J	8cc\J	8ff\J	16a/	.
.	.	.	.	16cc/JJ	.
=66	=66	=66	=66	=66	=66
1r	8G/L	8b\L	8dd\L	16b\LL	.
.	.	.	.	16f\	.
.	8G/	8b\	8dd\	16b\	.
.	.	.	.	16dd\JJ	.
.	8G/	8b\	8dd\	16b\LL	.
.	.	.	.	16f\	.
.	8G/J	8b\J	8dd\J	16b\	.
.	.	.	.	16dd\JJ	.
.	8G/L	8cc\L	8ee\L	16cc\LL	.
.	.	.	.	16g\	.
.	8G/	8cc\	8ee\	16cc\	.
.	.	.	.	16ee\JJ	.
.	8G/	8cc\	8ee\	16cc\LL	.
.	.	.	.	16g\	.
.	8G/J	8cc\J	8ee\J	16cc\	.
.	.	.	.	16ee\JJ	.
=67	=67	=67	=67	=67	=67
1r	8G/L	8b\L	8dd\L	16dd\LL	.
.	.	.	.	16b\	.
.	8G/	8b\	8dd\	16dd\	.
.	.	.	.	16gg\JJ	.
.	8G/	8b\	8dd\	16dd\LL	.
.	.	.	.	16b\	.
.	8G/J	8b\J	8dd\J	16dd\	.
.	.	.	.	16gg\JJ	.
.	8G/L	8cc\L	8ee\L	16ee\LL	.
.	.	.	.	16cc\	.
.	8G/	8cc\	8ee\	16ee\	.
.	.	.	.	16gg\JJ	.
.	8G/	8cc\	8ee\	16ee\LL	.
.	.	.	.	16cc\	.
.	8G/J	8cc\J	8ee\J	16ee\	.
.	.	.	.	16gg\JJ	.
=68	=68	=68	=68	=68	=68
1r	8G/L	8b\L	8dd\L	16dd\LL	.
.	.	.	.	16b\	.
.	8G/	8b\	8dd\	16dd\	.
.	.	.	.	16gg\JJ	.
.	8G/	8b\	8dd\	16dd\LL	.
.	.	.	.	16b\	.
.	8G/J	8b\J	8dd\J	16dd\	.
.	.	.	.	16gg\JJ	.
.	8G/L	8cc\L	8ee\L	16ee\LL	.
.	.	.	.	16cc\	.
.	8G/	8cc\	8ee\	16ee\	.
.	.	.	.	16gg\JJ	.
.	8G/	8cc\	8ee\	16ee\LL	.
.	.	.	.	16cc\	.
.	8G/J	8cc\J	8ee\J	16ee\	.
.	.	.	.	16gg\JJ	.
=69	=69	=69	=69	=69	=69
2r	8G/L	8b\L	8dd\L	16dd\LL	.
.	.	.	.	16b\	.
.	8G/	8b\	8dd\	16dd\	.
.	.	.	.	16gg\JJ	.
.	8G/	8b\	8dd\	16dd\LL	.
.	.	.	.	16b\	.
.	8G/J	8b\J	8dd\J	16dd\	.
.	.	.	.	16gg\JJ	.
4C/	4G/	8cc\L	8ee\L	8ee\L	.
.	.	8gg\J	8gg\J	8gg\J	.
8e\L	8ee\L	8ee\L	8ee\L	8ee\L	.
16d\L	16dd\L	16dd\L	16dd\L	16dd\L	.
16c\JJ	16cc\JJ	16cc\JJ	16cc\JJ	16cc\JJ	.
=70	=70	=70	=70	=70	=70
4d\	4dd\	8dd\L	8dd\L	8dd\L	6 4
.	.	8gg\J	8gg\J	8gg\J	.
8d\L	8dd\L	8dd\L	8dd\L	8dd\L	.
16c\L	16cc\L	16cc\L	16cc\L	16cc\L	.
16B\JJ	16b\JJ	16b\JJ	16b\JJ	16b\JJ	.
4c\	4cc\	8cc\L	8cc\L	8cc\L	.
.	.	8gg\J	8gg\J	8gg\J	.
8c\L	8cc\L	8cc\L	8cc\L	8cc\L	.
16B\L	16b\L	16b\L	16b\L	16b\L	.
16A\JJ	16a\JJ	16a\JJ	16a\JJ	16a\JJ	.
=71	=71	=71	=71	=71	=71
4B\	4b\	8b\L	8b\L	8b\L	6
.	.	8gg\J	8gg\J	8gg\J	.
8B\L	8b\L	8b/L	8b/L	8b/L	.
16A\L	16a\L	16a/L	16a/L	16a/L	.
16G\JJ	16g\JJ	16g/JJ	16g/JJ	16g/JJ	.
4A\	4a\	8a\L	8a\L	8a\L	7
.	.	8gg\J	8gg\J	8gg\J	.
8A\L	8a\L	8a/L	8a/L	8a/L	.
16G\L	16g\L	16g/L	16g/L	16g/L	.
16F\JJ	16f\JJ	16f/JJ	16f/JJ	16f/JJ	.
=72	=72	=72	=72	=72	=72
4G\	8g\L	8g/L	8g\L	4g/	.
.	8g\	8b/	8dd\	.	.
4r	8f\	8b/	8dd\	8r	.
.	8f\J	8b/J	8dd\J	8gg\	.
2r	8e\L	8g/L	8cc\L	(8gg\L	.
.	8e\	8g/	8cc\	8cc\)	.
.	8e\	8g/	8cc\	(8cc\	.
.	8e\J	8g/J	8cc\J	8b-\J)	.
=73	=73	=73	=73	=73	=73
*	*	*	*	*strophe	*
*	*	*	*	*^	*
*	*	*	*	*S/S	*S/A	*
1r	8f\L	8f/L	8cc\L	16b-\LL	16b\LL	.
.	.	.	.	16dd\	16dd\	.
*	*	*	*	*S/fin	*S/fin	*
*	*	*	*	*v	*v	*
*	*	*	*	*S-	*
.	8f\	8f/	8cc\	16cc\	.
.	.	.	.	16b-\JJ	.
.	8f\	8f/	8cc\	8a\L	.
.	8f\J	8f/J	8cc\J	8aa\J	.
.	8f#\L	8a/L	8dd\L	(8aa\L	.
.	8f#\	8a/	8dd\	8dd\)	.
.	8f#\	8a/	8dd\	(8dd\	.
.	8f#\J	8a/J	8dd\J	8cc\J)	.
=74	=74	=74	=74	=74	=74
1r	8g\L	8g/L	8dd\L	16cc\LL	.
.	.	.	.	16ee\	.
.	8g\	8g/	8dd\	16dd\	.
.	.	.	.	16cc\JJ	.
.	8g\	8g/	8dd\	8b\L	.
.	8g\J	8g/J	8dd\J	8dd\J	.
.	8G/L	8cc\L	8ee\L	(24ee\LL	.
.	.	.	.	24gg\	.
.	.	.	.	24ff\JJ	.
.	8G/	8cc\	8ee\	24ee\LL	.
.	.	.	.	24dd\	.
.	.	.	.	24cc\JJ)	.
.	8G/	8cc\	8ee\	(24ee\LL	.
.	.	.	.	24gg\	.
.	.	.	.	24ff\JJ	.
.	8G/J	8cc\J	8ee\J	24ee\LL	.
.	.	.	.	24dd\	.
.	.	.	.	24cc\JJ)	.
=75	=75	=75	=75	=75	=75
1r	8G/L	8b\L	8dd\L	(24dd\LL	.
.	.	.	.	24ff\	.
.	.	.	.	24ee\JJ	.
.	8G/	8b\	8dd\	24dd\LL	.
.	.	.	.	24cc\	.
.	.	.	.	24b\JJ)	.
.	8G/	8b\	8dd\	(24dd\LL	.
.	.	.	.	24ff\	.
.	.	.	.	24ee\JJ	.
.	8G/J	8b\J	8dd\J	24dd\LL	.
.	.	.	.	24cc\	.
.	.	.	.	24b\JJ)	.
.	8G/L	8cc\L	8ee\L	(24cc\LL	.
.	.	.	.	24ee\	.
.	.	.	.	24dd\JJ	.
.	8G/	8cc\	8ee\	24cc\LL	.
.	.	.	.	24b\	.
.	.	.	.	24a\JJ)	.
.	8G/	8cc\	8ee\	(24cc\LL	.
.	.	.	.	24ee\	.
.	.	.	.	24dd\JJ	.
.	8G/J	8cc\J	8ee\J	24cc\LL	.
.	.	.	.	24b\	.
.	.	.	.	24a\JJ)	.
=76	=76	=76	=76	=76	=76
4GG/	4G/	4b\	4dd\	16b\LL	.
.	.	.	.	16a\	.
.	.	.	.	16b\	.
.	.	.	.	16cc\JJ	.
8r	8r	8r	8r	16dd\LL	.
.	.	.	.	16cc\	.
8G\	8g\	8g/	8g/	16dd\	.
.	.	.	.	16ee\JJ	.
8GG/L	8G\L	8G/L	8G/L	2ff\	.
8G/	8g\	8g/	8g/	.	.
8GG/	8G\	8G/	8G/	.	.
8G/J	8g\J	8g/J	8g/J	.	.
=77	=77	=77	=77	=77	=77
4GG/	4G/	4G/	4G/	16b\LL	.
.	.	.	.	16a\	.
.	.	.	.	16b\	.
.	.	.	.	16cc\JJ	.
8r	8r	8r	8r	16dd\LL	.
.	.	.	.	16cc\	.
8G\	8g\	8g/	8g/	16dd\	.
.	.	.	.	16ee\JJ	.
8GG/L	8G\L	8G/L	8G/L	2ff\	.
8G/	8g\	8g/	8g/	.	.
8GG/	8G\	8G/	8G/	.	.
8G/J	8g\J	8g/J	8g/J	.	.
=78	=78	=78	=78	=78	=78
4GG/	4G/	4G/	4G/	16ff\LL	.
.	.	.	.	16ee\	.
.	.	.	.	16ff\	.
.	.	.	.	16gg\JJ	.
4r	4r	4r	4r	16aa\LL	.
.	.	.	.	16gg\	.
.	.	.	.	16aa\	.
.	.	.	.	16bb\JJ	.
4C/	2r	2r	2r	8ccc\L	.
.	.	.	.	8cc\J	.
4GG/	.	.	.	4ddT\	.
=79	=79	=79	=79	=79	=79
4C/	4c\	8cc\L	8cc\L	8cc\L	.
.	.	8gg\J	8gg\J	8gg\J	.
8e\L	8ee\L	8ee\L	8ee\L	8ee\L	.
16d\L	16dd\L	16dd\L	16dd\L	16dd\L	.
16c\JJ	16cc\JJ	16cc\JJ	16cc\JJ	16cc\JJ	.
4d\	4dd\	8dd\L	8dd\L	8dd\L	.
.	.	8gg\J	8gg\J	8gg\J	.
8d\L	8dd\L	8dd\L	8dd\L	8dd\L	.
16c\L	16cc\L	16cc\L	16cc\L	16cc\L	.
16B\JJ	16b\JJ	16b\JJ	16b\JJ	16b\JJ	.
=80	=80	=80	=80	=80	=80
4c\	4cc\	8cc\L	8cc\L	8cc\L	.
.	.	8gg\J	8gg\J	8gg\J	.
8c\L	8cc\L	8cc\L	8cc\L	8cc\L	.
16B\L	16b\L	16b\L	16b\L	16b\L	.
16A\JJ	16a\JJ	16a\JJ	16a\JJ	16a\JJ	.
8G\L	8g\L	16g/LL	16g/LL	16g/LL	.
.	.	16f/	16f/	16f/	.
8G\	8B\	16g/	16g/	16g/	.
.	.	16a/JJ	16a/JJ	16a/JJ	.
8G\	8B\	16b\LL	16b\LL	16b\LL	.
.	.	16a\	16a\	16a\	.
8G\J	8B\J	16b\	16b\	16b\	.
.	.	16cc\JJ	16cc\JJ	16cc\JJ	.
=81	=81	=81	=81	=81	=81
8G\L	8B\L	16dd\LL	16dd\LL	16dd\LL	.
.	.	16cc\	16cc\	16cc\	.
8G\	8B\	16dd\	16dd\	16dd\	.
.	.	16ee\JJ	16ee\JJ	16ee\JJ	.
8BB\	8d\	16ff\LL	16ff\LL	16ff\LL	6 5
.	.	16ee\	16ee\	16ee\	.
8BB\J	8d\J	16ff\	16ff\	16ff\	.
.	.	16gg\JJ	16gg\JJ	16gg\JJ	.
8C/L	8G\L	16cc\LL	16cc\LL	16cc\LL	.
.	.	16b\	16b\	16b\	.
8C/	8G\	16cc\	16cc\	16cc\	.
.	.	16dd\JJ	16dd\JJ	16dd\JJ	.
8C/	8g\	16ee\LL	16ee\LL	16ee\LL	.
.	.	16dd\	16dd\	16dd\	.
8C/J	8g\J	16ee\	16ee\	16ee\	.
.	.	16ff\JJ	16ff\JJ	16ff\JJ	.
=82	=82	=82	=82	=82	=82
8C/L	8e\L	16gg\LL	16gg\LL	16gg\LL	.
.	.	16ff\	16ff\	16ff\	.
8C/	8e\	16gg\	16gg\	16gg\	.
.	.	16aa\JJ	16aa\JJ	16aa\JJ	.
8C/	8e\	16bb-\LL	16bb-\LL	16bb-\LL	b7
.	.	16aa\	16aa\	16aa\	.
8C/J	8e\J	16bb-\	16bb-\	16bb-\	.
.	.	16ccc\JJ	16ccc\JJ	16ccc\JJ	.
8F\L	8c\L	16aa\LL	16aa\LL	16aa\LL	.
.	.	16bb-\	16bb-\	16bb-\	.
8F\	8c\	16aa\	16aa\	16aa\	.
.	.	16gg\JJ	16gg\JJ	16gg\JJ	.
8F\	8c\	16ff\LL	16ff\LL	16ff\LL	.
.	.	16ee\	16ee\	16ee\	.
8F\J	8c\J	16dd\	16dd\	16dd\	.
.	.	16cc\JJ	16cc\JJ	16cc\JJ	.
=83	=83	=83	=83	=83	=83
8F\L	8c\L	16ff\LL	16ff\LL	16ff\LL	.
.	.	16gg\	16gg\	16gg\	.
8F\	8c\	16ff\	16ff\	16ff\	.
.	.	16ee\JJ	16ee\JJ	16ee\JJ	.
8F\	8a\	16dd\LL	16dd\LL	16dd\LL	.
.	.	16cc\	16cc\	16cc\	.
8F\J	8a\J	16b\	16b\	16b\	.
.	.	16a\JJ	16a\JJ	16a\JJ	.
8G\L	8d\L	8g/L	8g/L	8g/L	.
8C\	8e\	8cc/	8cc/	8cc/	.
8G\	8d\	8G/	8G/	8G/	4
8GG\J	8d\J	8bt/J	8bt/J	8bt/J	3
=84	=84	=84	=84	=84	=84
2C/	2e\	2cc\	2cc\	2cc\	.
2r	2r	2r	2r	2r	.
==|!	==|!	==|!	==|!	==|!	==|!
*-	*-	*-	*-	*-	*-
!!!CDT: 1678/3/4/-1741/7/28
!!!OCY: Italia
!!!ODE: Count Wenzeslaus von Morzin of Bohemia; Count Wenceslas of Morzin
!!!ODT: 1725///
!!!OPC: Venezia; Venice
!!!AGN: concerto
!!!AST: baroque
!!!AMT: simple quadruple
!!!PPR: Michel-Charles Le Ce`ne
!!!PC#: Le Cene No. 521
!!!PDT: 1725///
!!!PPP: Amsterdam
!!!SCT: RV 178
!!!SMA1: The cooperation of the following libraries is gratefully acknowledged:
!!!SMA2: Saechsische Landesbibliothek, Dresden; Biblioteca Nazionale
!!!SMA3: Universitaria, Turin; Henry Watson Music Library, Manchester.
!!!YOR: New York: Dover Publications, Inc. 1995
!!!AIN: cello cemba viola violn
!!!EEV: 1.0
!!!RDT: 1994/5/13/
!!!YER: 1996/10/31/
!!!YEP: Center for Computer Assisted Research in the Humanities
!!!YEN: United States of America
!!!EFL: 1/3
!!!ENC: Edmund Correia, Jr.
!!!EED: Eleanor Selfridge-Field
